packages/icons/svg/Fill/triangle-right.svg

<svg width="24" height="24" viewBox="0 0 24 24" fill="none" xmlns="http://www.w3.org/2000/svg">
<g id="Icon/Fill/triangle-right">
<path id="Mask" fill-rule="evenodd" clip-rule="evenodd" d="M10.956 18.0028C10.649 18.0028 10.339 17.9368 10.05 17.8008C9.402 17.4948 9 16.8878 9 16.2148V7.78878C9 7.11578 9.402 6.50878 10.05 6.20278C10.782 5.85778 11.65 5.95878 12.259 6.46178L17.358 10.6758C17.767 11.0118 18 11.4958 18 12.0018C18 12.5078 17.767 12.9918 17.358 13.3278L12.259 17.5408C11.891 17.8458 11.427 18.0028 10.956 18.0028Z" fill="#000000"/>
</g>
</svg>

<svg fill="none" height="24" viewBox="0 0 24 24" width="24" xmlns="http://www.w3.org/2000/svg"><path clip-rule="evenodd" d="m10.956 18.0028c-.307 0-.617-.066-.906-.202-.648-.306-1.05-.913-1.05-1.586v-8.42602c0-.673.402-1.28 1.05-1.586.732-.345 1.6-.244 2.209.259l5.099 4.21402c.409.336.642.82.642 1.326s-.233.99-.642 1.326l-5.099 4.213c-.368.305-.832.462-1.303.462" fill="#6b7280" fill-rule="evenodd"/></svg>
